!!!COM: Bach, Johann Sebastian
!!!OPR: Joh. Seb. Bachs vierstimmige Choralges‰nge
!!!XEN: Four-part Chorales
!!!OTL: 100. Jesu, der du meine Seele
!!!SCT: BWV 353
!!!SCA: Thematisch-systematisches Verzeichnis der musikalischen Werke Johann Sebastian Bach: Bach-Werke-Verzeichnis (Schmieder)
!!!YOR: Bach Gesellschaft Edition xxxix
!!!ENC: Steven Rasmussen
!!!CDT: 1685/3//-1750/7/28/
!!!OCY: Deutschland
!!!YEC: Copyright (c) 1994, 2000 Center for Computer Assisted Research in the Humanities
!!!YEM: Rights to all derivative editions reserved
!!!YEN: United States of America
**kern	**kern	**kern	**kern	**silbe
*I:[BASSO]	*I:[TENORE]	*I:[ALTO]	*I:[SOPRANO]	*I:[SOPRANO]
*>[A,A,B]	*>[A,A,B]	*>[A,A,B]	*>[A,A,B]	*
*>A	*>A	*>A	*>A	*
*clefF4	*clefGv2	*clefG2	*clefG2	*
*k[b-e-]	*k[b-e-]	*k[b-e-]	*k[b-e-]	*
*g:	*g:	*g:	*g:	*
*M4/4	*M4/4	*M4/4	*M4/4	*
=1-	=1-	=1-	=1-	=1-
8GL	8B-L	8gL	4dd	Je-aus
8AJ	8cJ	8f#J	.	.
8B-L	4d	4g	4dd	-su,des
8cJ	.	.	.	.
4d	4d	4f#	4a	derTeu-
8cL	4d	4g	4b-	du-fels
8B-J	.	.	.	.
=2	=2	=2	=2	=2
4A	4c	8gL	4cc	mei-finst-
.	.	8f#J	.	.
4G	4d	4g	8b-L	-ne-rer
.	.	.	8aJ	.
4C	4e-	4g	2a	See-H√∂h-
4D	8dL	4f#	.	.
.	8cJ	.	.	.
=3	=3	=3	=3	=3
2GG;	2B-;	2d;	2g;	-le-le
8GL	4d	4g	4b-	hastund
8FJ	.	.	.	.
8E-L	4G	8gL	4b-	durchder
8DJ	.	8fJ	.	.
=4	=4	=4	=4	=4
8CL	8GL	8e-L	4a	dei-schwe-
8DJ	8F#J	8dJ	.	.
4E-	4G	8dL	4g	-nen-ren
.	.	8cJ	.	.
4AA	8AL	4c	4f#	bit-S√ºn-
.	8cJ	.	.	.
4GG	8B-L	4d	4g	-tern-den-
.	8GJ	.	.	.
=5	=5	=5	=5	=5
1D;	1F#;	1d;	1a;	Tod-not
=6:|!	=6:|!	=6:|!	=6:|!	=6:|!
*>B	*>B	*>B	*>B	*
4D	4d	4f#	4a	kr√§f-
8GL	4d	4g	4b-	-tig-
8FJ	.	.	.	.
4En	4c	4g	4cc	-lich
8FL	4c	4fn	4a	her-
8EJ	.	.	.	.
=7	=7	=7	=7	=7
4D	8B-L	4f	4b-	-aus-
.	8cJ	.	.	.
8CL	4d	4f	8aL	-ge-
8BB-J	.	.	8gJ	.
2C	4.c	4f	2g	-ris-
.	.	4en	.	.
.	8B-	.	.	.
=8	=8	=8	=8	=8
2FF;	2A;	2c;	2f;	-sen
4D	4d	4f	4b-	und
4F	4A	4f	4cc	mich
=9	=9	=9	=9	=9
8B-L	4B-	8fL	4dd	Sol-
8cJ	.	8e-J	.	.
8dL	4B-	8fL	4b-	-ches
8B-J	.	8dJ	.	.
8GL	8B-L	4g	4ee-	las-
8AJ	8cJ	.	.	.
8B-L	8dL	4g	4dd	-sen
8GJ	8B-J	.	.	.
=10	=10	=10	=10	=10
8E-L	8GL	4g	2cc	wis-
8CJ	8e-J	.	.	.
4F	4A	8fL	.	.
.	.	8e-J	.	.
2BB-;	2B-;	2d;	2b-;	-sen
=11	=11	=11	=11	=11
4F	4c	4f	4a	durch
4G	4B-	8e-L	4b-	dein
.	.	8dJ	.	.
4A	8fL	4c	4cc	an-
.	8e-J	.	.	.
8B-L	4d	8fL	4dd	-ge-
8AJ	.	8gJ	.	.
=12	=12	=12	=12	=12
8GL	4d	4a	4cc	-neh-
8F#J	.	.	.	.
4G	4d	4g	4b-	-mes
2D;	2d;	2f#;	2a;	Wort:
=13	=13	=13	=13	=13
8B-L	4d	4g	4g	sei
8AJ	.	.	.	.
8GL	4d	4d	4a	doch
8F#J	.	.	.	.
8GL	4d	4g	4b-	itzt,
8FnJ	.	.	.	.
8E-L	8cL	4g	8ccL	o
8DJ	8dJ	.	8b-J	.
=14	=14	=14	=14	=14
8CL	8e-L	4g	4.a	Gott,
8AAJ	8cJ	.	.	.
4D	8AL	4f#	.	.
.	8dJ	.	8g	mein
2GG;	2Bn;	2d;	2g;	Hort.
==|!	==|!	==|!	==|!	==|!
*-	*-	*-	*-	*-
!!!RWG: Key is interpreted using the Humdrum key tool.
!!!URL-pdf: https://s9.imslp.org/files/imglnks/usimg/6/6b/IMSLP24489-PMLP09471-CCARH_Bach_Chorales.pdf#page=70 Musedata edition
!!!URL-pdf: https://s9.imslp.org/files/imglnks/usimg/7/7a/IMSLP04155-Bach_-_BGA_253-438.pdf#page=54 	Bach-Gesellschaft Ausgabe, Band 39 (pp.175-276) Leipzig: Breitkopf und H‰rtel, 1892. Plate B.W. XXXIX.
!!!END: 1994/06/27
!!!EMD: Converted from MuseData to Humdrum Dec 19, 2000, by Andreas Kornstaedt using muse2kern.
!!!EED: Craig Stuart Sapp
!!!EEV: 2024/03/31
!!!ONB: Some non-unicode characters
!!!filter-keyboard: satb2gs
